X:4
T:4 Quae moerebat et dolebat
T:Alto solo
M:2/4
L:1/8
%%staves a | {1 2 3}
Q:"Allegro"
K:Eb
V:a name=Alt dyn=up
z4|z4|z4|z4|z4|z4|
V:1 name="Str.\nBc."
ee2f/g/|ff2g/f/|c'c'2b/a/|g[fg]2d/e/|c'c'2b/a/|g/f/ez2|
V:2
zG zG|zA zA|za zf|zB zG|za zf|zG zE|
V:3
E,2E,2|E,2E,2|D,2B,2|E,2E,2|E,2D,2|E,2E,,2|
% (15)
V:a		% M7
z4|z4|z4|z4|z4|z4|z4|
V:1
BB,TB,2|AB,TB,2|Ge2G|GFz2|cc2d|eE2B|cc2d|
V:2
!dolce!zB, zB,|zA, zA,|zG, zE|ED zG|!forte!zA zF|zE zE|zA zF|
V:3
G,2E,2|F,2D,2|E,2=A,,2|B,,2wG,2|wA,2wF,2|G,2E,2|A,2F,2|
V:a		% M14
z4|z4|z4|z4|z4|z4|z4|
V:1
eE2B|Af2A|Af2A|Aa2a|{a}gf/g/ af|{e}d4|Ee2e-|
V:2
zE zE|!dolce!zF zF|zF zF|!forte!zf zf|zB, zC|zB, zA,|!dolce!x4|
V:3
G,2E,2|wF,2wE,2|wD,2wC,2|B,,2D,2|E,2A,,2|B,,2B,,2|E,2G,2|
V:a		% M21
z4|z4|z4|z4|E(E2F/G/)|wF(F2G/F/)|
w:Quae moe --re-bat__
V:1
eF/A/ GD/F/|Ee2e-|eF/A/ GD/F/|EB,G,2|z[GB] z[GB]|z[FA] z[FA]|
V:2
x4|x!forte!x3|x4|x4|!dolces!x4|x4|
V:3
A,2B,2|C2G,2|A,2B,2|E,2z2|E,2E,2|E,2E,2|
V:a		% M27
wc(c2B/A/)|wG(F2D/E/)|wc(c2B/A/)|G/F/ Ez2|wBTB3|wATA3|
w:et do --le-bat__ et do --le -bat, et tre-me-bat,
V:1
z[Ac] z[FA]|z[B,G] z[B,G]|z[Ac] z[FA]|z[B,G] z[B,G]|z[GB] z[GB]|z[FA] z[FA]|
V:2
x4|x4|x4|x4|x4|x4|
V:3
D,2B,2|E,2E,2|E,2D,2|E,2E,2|G,2E,2|F,2D,2|
% (16)
V:a		% M33
(Ge2)G|G Fz2|B2B2|B2=A2|E2E2|E3/ E/D2|
w:cum_ vi-de-bat na-ti poe-nas poe-nas in-cly-ti,
V:1
z[EG] z[EG]|z[DF] z[DF]|zB zB|zB z=A|zE zE|zE zD|
V:2
x4|x4|x4|x4|x4|x4|
V:3
E,2=A,,2|wB,,2wB,,2|D,2=E,2|F,2F,,2|G,,2=A,,2|B,,2D,2|
V:a		% M39
wG(G2=A)|wB(B2F)|wG(G2=A)|wBB3|!dolce!E2E2|E2E2|
w:et tre -me-bat,_ cum vi -de-bat na-ti poe-nas,
V:1
zg z=a|zb zf|zg z=a|zb zb|z[CE] z[CE]|z[CE] z[CE]|
V:2
x4|x4|x4|x4|x4|x4|
V:3
E,2C,2|D,2B,,2|E,2C,2|D,2B,,2|C,2B,,2|=A,,2G,,2|
V:a		% M45
!forte!e2e2|(dc/d/ we) d/c/|{B}=A3A|B2z2|wG(G2=A)|wB(B2F)|
w:na-ti poe ---nas_ in-cly-ti, et tre -me-bat,_
V:1
z[ce] z[ce]|z[Bd] z[Bc]|z[=Ac] z[Ac]|zB zF|zG z=A|zB zF|
V:2
!forte!x4|x4|x4|x2!dolce!x2|x4|x4|
V:3
F,,2=A,,2|B,,2E,2|F,2F,,2|B,,2D,2|E,2C,2|D,2B,,2|
V:a		% M51
wG(G2=A)|BB3|!dolce!E2E2|E2E2|!forte!e2e2|(dc/d/ we) d/c/|
w:cum vi -de-bat na-ti poe-nas, na-ti poe ---nas_
V:1
zG z=A|zB zB|z[CE] z[CE]|z[CE] z[CE]|z[ce] z[ce]|z[Bd] z[Be]|
V:2
x4|x4|x4|x4|!forte!x4|x4|
V:3
E,2C,2|D,2B,,2|C,2B,,2|=A,,2G,,2|F,,2=A,,2|B,,2E,2|
% (17)
V:a		% M57
{B}=A3B|B2z2|z4|z4|z4|z4|
w:in-cly-ti.
V:1
z[=Ac] z[Ac]|Bb2b-|bc/e/ d=A/c/|Bb2b-|bc/e/ d=A/c/|BFB,2|
V:2
x4|x4|x4|x!dolce!x3|x4|x4|
V:3
F,2F,,2|B,,2D,2|E,2F,2|G,2D,2|E,2F,2|B,2z2|
V:a		% M63
!dolce!TB2TB2|TB2TB2|(!forte!_d2c) B|wA(G2F)|(G/B/A2)G|A/G/ Fz2|
w:Quae moe-re-bat et_ do-le-bat,_ et__ do-le -bat,
V:1
z[B_d] z[Bd]|z[B_d] z[Bd]|z[B_d] z[=EB]|z[FA] z[FA]|z[FG] z[=EG]|zf2f-|
V:2
!dolce!x4|x4|x4|x4|x4|x4|
V:3
B,2A,2|G,2F,2|=E,2C,2|F,2A,,2|B,,2C,2|F,2A,,2|
V:a		% M69
z4|!dolce!TA2TA2|TA2TA2|(!forte!c2B) A|wG(F2E)|(A/F/c2)B/A/|
w:et tre-me-bat, cum_ vi-de-bat,_ cum__ vi -
V:1
fG/B/ A=E/G/|F[FA] z[FA]|z[FA] z[FA]|z[Ac] z[FA]|z[B,G] z[EG]|z[EF] z[DF]|
V:2
x4|x4|x4|x4|x4|x4|
V:3
B,,2C,2|F,2_E,2|D,2C,2|B,,2D,2|E,2G,,2|A,,2B,,2|
V:a		% M75
g/f/ ez2|z4|z4|wc(c2d)|weTE3|wc(c2d)|
w:de -bat, et tre -me-bat, cum vi -
V:1
ze2e-|eF/A/ GD/F/|EB,/E/G,2|zc zd|ze zB|zc zd|
V:2
x!forte!x3|x4|x4|!dolce!x4|x4|x4|
V:3
E,2G,2|A,2B,2|E,2G,2|A,2F,2|G,2E,2|A,2F,2|
% (18)
V:a		% M81
eE3|!dolce!A2A2|A2A2|!forte!f2A2|(TG3/F//G//) (TA3/G//F//)|{E}D3E|
w:de-bat na-ti poe-nas, na-ti poe --nas__ in-cly-
V:1
ze zB|z[FA] z[FA]|z[FA] z[FA]|z[fa] z[fa]|z[eg] z[ef]|z[df] z[df]|
V:2
x4|x4|x4|!forte!x4|x4|x4|
V:3
G,2E,2|F,2E,2|D,2C,2|B,,2D,2|E,2A,,2|B,,2B,,2|
V:a		% M87
E2z2|wc(c2d)|eE3|wc(c2d)|eE3|!dolce!A2A2|
w:ti, et tre -me-bat, cum vi -de-bat na-ti
V:1
ze zB|zc zd|ze zB|zc zd|ze zB|z[FA] z[FA]|
V:2
x2!dolce!x2|x4|x4|x4|x4|x4|
V:3
E,2G,2|A,2F,2|G,2E,2|A,2F,2|G,2E,2|F,2E,2|
V:a		% M93
A2A2|!forte!f2A2|(TG3/F//G//) (TA3/G//F//)|{E}D3E|E2z2|z4|
w:poe-nas, na-ti poe --nas__ in-cly-ti.
V:1
z[FA] z[FA]|z[fa] z[fa]|z[eg] z[ef]|z[df] z[df]|Ee2e-|eF/A/ GD/F/|
V:2
x4|!forte!x4|x4|x4|x!forte!x3|x4|
V:3
D,2C,2|B,,2D,2|E,2A,,2|B,,2B,,2|E,2G,2|A,2B,2|
V:a		% M99
z4|z4|z4|z4|Hz4|]
V:1
Ee2e-|eF/A/ GD/F/|Ee/c/ =A_A/F/|DE/C/ A,B,|[G,E]2Hz2|]
V:2
x!dolce!x3|x4|x!forte!x3|x4|x4|]
V:3
C2G,2|A,2B,2|E,2z2|zwE,wA,,wB,,|E,,2Hz2|]

